X:1
T:The Storms Are On the Ocean
M:3/4
L:1/4
K:D
 z2 A| A A A| B2 B/2B/2| A2 A| D2 F| A/2 A3/2 A| E/2- F3/2 C/2E/2|\
 D3-| D z A| A2 A| B2 B| A2 A| D2 F/2G/2| A2 A| E/2- F3/2C/2-E/2| D3-|\
 D z c| [B2G2]| [BG] [d2B2]| d| B A2-| A2 A| d d d| c2c/2-e/2| d3-|\
 =c z d| B2 B| d2 B| A2B/2-A/2| F2 B| A2B/2-A/2| F2 E| D3-| D z2|

